LUT_for_model_7.cube
#Created by: Adobe Photoshop Export Color Lookup Plugin
#Copyright: (C) Copyright 2022 realvwr.
TITLE "snapshot.png"

#LUT size
LUT_3D_SIZE 8

#data domain
DOMAIN_MIN 0.0 0.0 0.0
DOMAIN_MAX 1.0 1.0 1.0

#LUT data points
0.000000 0.000000 0.000000
0.024963 0.002747 0.003479
0.181458 0.020081 0.025452
0.390503 0.043182 0.054718
0.556335 0.061554 0.077972
0.689240 0.076233 0.096588
0.800293 0.088531 0.112152
0.900391 0.099609 0.126190
0.003479 0.024963 0.002747
0.024963 0.024231 0.002747
0.181458 0.036957 0.020081
0.390503 0.053864 0.043182
0.556335 0.067352 0.061554
0.689240 0.078033 0.076233
0.800293 0.088531 0.089935
0.900391 0.099609 0.103912
0.025421 0.181396 0.020050
0.047638 0.181396 0.020050
0.181458 0.176056 0.020081
0.390503 0.193024 0.043182
0.556335 0.206512 0.061554
0.689240 0.217224 0.076233
0.800293 0.226166 0.088531
0.900391 0.234314 0.099609
0.054718 0.390472 0.043182
0.076935 0.390472 0.043182
0.216064 0.390472 0.043182
0.390503 0.378967 0.043182
0.556335 0.392426 0.061554
0.689240 0.403229 0.076233
0.800293 0.412262 0.088531
0.900391 0.420227 0.099609
0.077942 0.556305 0.061523
0.100189 0.556305 0.061523
0.239349 0.556305 0.061523
0.425232 0.556305 0.061523
0.556335 0.539917 0.061554
0.689240 0.550659 0.076233
0.800293 0.559631 0.088531
0.900391 0.567841 0.099609
0.096588 0.689209 0.076233
0.118744 0.689209 0.076233
0.257904 0.689209 0.076233
0.443939 0.689209 0.076233
0.591339 0.689209 0.076233
0.689240 0.668884 0.076233
0.800293 0.677948 0.088531
0.900391 0.685913 0.099609
0.112152 0.800293 0.088531
0.134399 0.800293 0.088531
0.273590 0.800293 0.088531
0.459534 0.800293 0.088531
0.606873 0.800293 0.088531
0.725220 0.800293 0.088531
0.800293 0.776672 0.088531
0.900391 0.784851 0.099609
0.126190 0.900391 0.099609
0.148499 0.900391 0.099609
0.287689 0.900391 0.099609
0.473602 0.900391 0.099609
0.621002 0.900391 0.099609
0.739288 0.900391 0.099609
0.838013 0.900391 0.099609
0.900391 0.873810 0.099609
0.002747 0.003479 0.024963
0.024231 0.002747 0.024963
0.181458 0.020081 0.047668
0.390503 0.043182 0.076935
0.556335 0.061554 0.100220
0.689240 0.076233 0.118744
0.800293 0.088531 0.134399
0.900391 0.099609 0.148499
0.002747 0.024963 0.024231
0.027740 0.027740 0.027740
0.184204 0.045044 0.049652
0.393280 0.068176 0.078979
0.559113 0.086517 0.102203
0.692017 0.101227 0.120850
0.803040 0.113495 0.136383
0.903137 0.124573 0.150421
0.020050 0.181396 0.036896
0.049652 0.184174 0.045044
0.184204 0.179535 0.045044
0.393280 0.196533 0.068176
0.559113 0.209961 0.086517
0.692017 0.220795 0.101227
0.803040 0.229645 0.113495
0.903137 0.237854 0.124573
0.043182 0.390472 0.053864
0.078979 0.393250 0.068176
0.218170 0.393250 0.068176
0.393280 0.382477 0.068176
0.559113 0.395966 0.086517
0.692017 0.406708 0.101227
0.803040 0.415680 0.113495
0.903137 0.423767 0.124573
0.061523 0.556305 0.067322
0.102203 0.559082 0.086517
0.241333 0.559082 0.086517
0.427338 0.559082 0.086517
0.559113 0.543427 0.086517
0.692017 0.554138 0.101227
0.803040 0.563141 0.113495
0.903137 0.571259 0.124573
0.076233 0.689209 0.078033
0.120850 0.691986 0.101227
0.260010 0.691986 0.101227
0.445923 0.691986 0.101227
0.593475 0.691986 0.101227
0.692017 0.672394 0.101227
0.803040 0.681335 0.113495
0.903137 0.689484 0.124573
0.089935 0.800293 0.088531
0.136383 0.803040 0.113495
0.275604 0.803040 0.113495
0.461456 0.803040 0.113495
0.608948 0.803040 0.113495
0.727112 0.803040 0.113495
0.803040 0.780151 0.113495
0.903137 0.788330 0.124573
0.103912 0.900391 0.099609
0.150421 0.903137 0.124573
0.289551 0.903137 0.124573
0.475464 0.903137 0.124573
0.622955 0.903137 0.124573
0.741180 0.903137 0.124573
0.840027 0.903137 0.124573
0.903137 0.877289 0.124573
0.020081 0.025452 0.181458
0.036957 0.020081 0.181458
0.176086 0.020081 0.181458
0.390503 0.043182 0.216064
0.556335 0.061554 0.239380
0.689240 0.076233 0.257935
0.800293 0.088531 0.273590
0.900391 0.099609 0.287689
0.020081 0.047668 0.181458
0.045044 0.049652 0.184204
0.179596 0.045044 0.184204
0.393280 0.068176 0.218109
0.559113 0.086517 0.241364
0.692017 0.101227 0.260040
0.803040 0.113495 0.275604
0.903137 0.124573 0.289551
0.020081 0.181458 0.176147
0.045044 0.184204 0.179626
0.201538 0.201477 0.201538
0.410583 0.224609 0.230835
0.576416 0.242950 0.254089
0.709320 0.257660 0.272644
0.820343 0.269928 0.288208
0.920441 0.281006 0.302246
0.043182 0.390472 0.192993
0.068176 0.393250 0.196594
0.230804 0.410553 0.224640
0.410583 0.404358 0.224670
0.576416 0.417847 0.243011
0.709320 0.428619 0.257721
0.820343 0.437683 0.269989
0.920471 0.445770 0.281067
0.061523 0.556305 0.206482
0.086517 0.559082 0.209961
0.254089 0.576385 0.243011
0.439972 0.576385 0.243011
0.576416 0.565338 0.243011
0.709320 0.576141 0.257721
0.820343 0.585083 0.269989
0.920471 0.593262 0.281067
0.076233 0.689209 0.217194
0.101227 0.691986 0.220795
0.272675 0.709290 0.257690
0.458588 0.709290 0.257690
0.606079 0.709290 0.257690
0.709320 0.694336 0.257721
0.820343 0.703308 0.269989
0.920471 0.711456 0.281067
0.088531 0.800293 0.226318
0.113495 0.803040 0.229828
0.288269 0.820343 0.269989
0.474213 0.820343 0.269989
0.621613 0.820343 0.269989
0.739868 0.820343 0.269989
0.820343 0.802063 0.269989
0.920471 0.810272 0.281067
0.099609 0.900391 0.234497
0.124573 0.903137 0.237854
0.302307 0.920471 0.281067
0.488220 0.920471 0.281067
0.635742 0.920471 0.281067
0.753906 0.920471 0.281067
0.852722 0.920471 0.281067
0.920471 0.899231 0.281067
0.043182 0.054718 0.390503
0.053864 0.043182 0.390503
0.193024 0.043182 0.390503
0.378967 0.043182 0.390503
0.556335 0.061554 0.425262
0.689240 0.076233 0.443939
0.800293 0.088531 0.459534
0.900391 0.099609 0.473602
0.043182 0.076935 0.390503
0.068176 0.078979 0.393280
0.196533 0.068176 0.393280
0.382477 0.068176 0.393280
0.559113 0.086517 0.427338
0.692017 0.101227 0.445953
0.803040 0.113495 0.461456
0.903137 0.124573 0.475464
0.043182 0.216064 0.390503
0.068176 0.218109 0.393280
0.224609 0.230743 0.410583
0.404419 0.224609 0.410583
0.576416 0.242950 0.439972
0.709320 0.257660 0.458679
0.820343 0.269928 0.474182
0.920441 0.281006 0.488159
0.043182 0.390503 0.378967
0.068176 0.393280 0.382477
0.224670 0.410583 0.404449
0.433716 0.433685 0.433716
0.599548 0.452026 0.456970
0.732452 0.466736 0.475555
0.843475 0.479004 0.491119
0.943573 0.490082 0.505127
0.061523 0.556305 0.392395
0.086517 0.559082 0.395935
0.243011 0.576385 0.417847
0.456940 0.599518 0.452057
0.599548 0.594604 0.452057
0.732452 0.605377 0.466766
0.843475 0.614380 0.479034
0.943573 0.622528 0.490112
0.076233 0.689209 0.403229
0.101227 0.691986 0.406708
0.257690 0.709290 0.428589
0.475586 0.732422 0.466766
0.623077 0.732422 0.466766
0.732452 0.723633 0.466766
0.843475 0.732605 0.479034
0.943573 0.740753 0.490112
0.088531 0.800293 0.412262
0.113495 0.803040 0.415680
0.269989 0.820343 0.437683
0.491150 0.843475 0.479034
0.638641 0.843475 0.479034
0.756805 0.843475 0.479034
0.843475 0.831360 0.479034
0.943573 0.839508 0.490112
0.099609 0.900391 0.420441
0.124573 0.903137 0.423767
0.281067 0.920471 0.445770
0.505157 0.943573 0.490112
0.652618 0.943573 0.490112
0.770874 0.943573 0.490112
0.869629 0.943573 0.490112
0.943573 0.928528 0.490112
0.061554 0.077972 0.556335
0.067352 0.061554 0.556335
0.206512 0.061554 0.556335
0.392426 0.061554 0.556335
0.539917 0.061554 0.556335
0.689240 0.076233 0.591370
0.800293 0.088531 0.606873
0.900391 0.099609 0.621002
0.061554 0.100220 0.556335
0.086517 0.102203 0.559113
0.209961 0.086517 0.559113
0.395966 0.086517 0.559113
0.543427 0.086517 0.559113
0.692017 0.101227 0.593353
0.803040 0.113495 0.608948
0.903137 0.124573 0.622955
0.061554 0.239380 0.556335
0.086517 0.241364 0.559113
0.242950 0.253937 0.576416
0.417816 0.242950 0.576416
0.565338 0.242950 0.576416
0.709320 0.257660 0.606110
0.820343 0.269928 0.621582
0.920441 0.281006 0.635681
0.061554 0.425262 0.556335
0.086517 0.427338 0.559113
0.243011 0.440002 0.576416
0.452026 0.456879 0.599548
0.594635 0.452026 0.599548
0.732452 0.466736 0.623077
0.843475 0.479004 0.638641
0.943573 0.490082 0.652618
0.061554 0.556335 0.539917
0.086517 0.559113 0.543427
0.243011 0.576416 0.565338
0.452057 0.599548 0.594696
0.617889 0.617859 0.617889
0.750793 0.632568 0.636536
0.861816 0.644836 0.652039
0.961914 0.655914 0.666077
0.076233 0.689209 0.550629
0.101227 0.691986 0.554260
0.257690 0.709290 0.576111
0.466766 0.732422 0.605438
0.636505 0.750763 0.632568
0.750793 0.746826 0.632599
0.861816 0.755829 0.644867
0.961945 0.763977 0.655945
0.088531 0.800293 0.559631
0.113495 0.803040 0.563141
0.269989 0.820343 0.585083
0.479034 0.843475 0.614441
0.652069 0.861816 0.644867
0.770294 0.861816 0.644867
0.861816 0.854614 0.644867
0.961945 0.862732 0.655945
0.099609 0.900391 0.567841
0.124573 0.903137 0.571259
0.281067 0.920471 0.593262
0.490112 0.943573 0.622528
0.666107 0.961945 0.655945
0.784302 0.961945 0.655945
0.883057 0.961945 0.655945
0.961945 0.951782 0.655945
0.076233 0.096588 0.689240
0.078033 0.076233 0.689240
0.217224 0.076233 0.689240
0.403229 0.076233 0.689240
0.550659 0.076233 0.689240
0.668884 0.076233 0.689240
0.800293 0.088531 0.725220
0.900391 0.099609 0.739288
0.076233 0.118744 0.689240
0.101227 0.120850 0.692017
0.220795 0.101227 0.692017
0.406708 0.101227 0.692017
0.554138 0.101227 0.692017
0.672394 0.101227 0.692017
0.803040 0.113495 0.727112
0.903137 0.124573 0.741180
0.076233 0.257935 0.689240
0.101227 0.260040 0.692017
0.257660 0.272644 0.709320
0.428680 0.257660 0.709320
0.576111 0.257660 0.709320
0.694336 0.257660 0.709320
0.820343 0.269928 0.739838
0.920441 0.281006 0.753876
0.076233 0.443939 0.689240
0.101227 0.445953 0.692017
0.257721 0.458618 0.709320
0.466736 0.475555 0.732452
0.605438 0.466736 0.732452
0.723633 0.466736 0.732452
0.843475 0.479004 0.756805
0.943573 0.490082 0.770844
0.076233 0.591370 0.689240
0.101227 0.593353 0.692017
0.257721 0.606110 0.709320
0.466766 0.623016 0.732452
0.632568 0.636475 0.750793
0.746857 0.632568 0.750793
0.861816 0.644836 0.770264
0.961914 0.655914 0.784332
0.076233 0.689240 0.668884
0.101227 0.692017 0.672394
0.257721 0.709320 0.694336
0.466766 0.732452 0.723633
0.632599 0.750793 0.746887
0.765503 0.765472 0.765503
0.876526 0.777740 0.781036
0.976624 0.788818 0.795105
0.088531 0.800293 0.677948
0.113495 0.803040 0.681335
0.269989 0.820343 0.703308
0.479034 0.843475 0.732605
0.644867 0.861816 0.755890
0.781036 0.876526 0.777771
0.876526 0.873260 0.777771
0.976624 0.881348 0.788849
0.099609 0.900391 0.686127
0.124573 0.903137 0.689484
0.281067 0.920471 0.711456
0.490112 0.943573 0.740753
0.655945 0.961945 0.763977
0.795074 0.976624 0.788849
0.893829 0.976624 0.788849
0.976624 0.970398 0.788849
0.088531 0.112152 0.800293
0.088531 0.089935 0.800293
0.226318 0.088531 0.800293
0.412262 0.088531 0.800293
0.559631 0.088531 0.800293
0.677948 0.088531 0.800293
0.776672 0.088531 0.800293
0.900391 0.099609 0.838013
0.088531 0.134399 0.800293
0.113495 0.136383 0.803040
0.229828 0.113495 0.803040
0.415680 0.113495 0.803040
0.563141 0.113495 0.803040
0.681335 0.113495 0.803040
0.780151 0.113495 0.803040
0.903137 0.124573 0.840027
0.088531 0.273438 0.800293
0.113495 0.275452 0.803040
0.269928 0.288208 0.820343
0.437622 0.269928 0.820343
0.585052 0.269928 0.820343
0.703308 0.269928 0.820343
0.802063 0.269928 0.820343
0.920441 0.281006 0.852692
0.088531 0.459534 0.800293
0.113495 0.461456 0.803040
0.269989 0.474213 0.820343
0.479004 0.491119 0.843475
0.614441 0.479004 0.843475
0.732605 0.479004 0.843475
0.831360 0.479004 0.843475
0.943573 0.490082 0.869629
0.088531 0.606873 0.800293
0.113495 0.608948 0.803040
0.269989 0.621613 0.820343
0.479034 0.638580 0.843475
0.644836 0.652039 0.861816
0.755859 0.644836 0.861816
0.854614 0.644836 0.861816
0.961914 0.655914 0.883026
0.088531 0.725220 0.800293
0.113495 0.727112 0.803040
0.269989 0.739868 0.820343
0.479034 0.756805 0.843475
0.644867 0.770233 0.861816
0.777740 0.781006 0.876526
0.873260 0.777740 0.876526
0.976624 0.788818 0.893829
0.088531 0.800293 0.776672
0.113495 0.803040 0.780151
0.269989 0.820343 0.802063
0.479034 0.843475 0.831360
0.644867 0.861816 0.854614
0.777771 0.876526 0.873260
0.888824 0.888824 0.888824
0.988922 0.899902 0.902863
0.099609 0.900391 0.784851
0.124573 0.903137 0.788330
0.281067 0.920471 0.810272
0.490112 0.943573 0.839508
0.655945 0.961945 0.862732
0.788849 0.976624 0.881348
0.902863 0.988922 0.899902
0.988922 0.985962 0.899902
0.099609 0.126190 0.900391
0.099609 0.103912 0.900391
0.234497 0.099609 0.900391
0.420441 0.099609 0.900391
0.567841 0.099609 0.900391
0.686127 0.099609 0.900391
0.784851 0.099609 0.900391
0.873810 0.099609 0.900391
0.099609 0.148499 0.900391
0.124573 0.150421 0.903137
0.237854 0.124573 0.903137
0.423767 0.124573 0.903137
0.571259 0.124573 0.903137
0.689484 0.124573 0.903137
0.788330 0.124573 0.903137
0.877289 0.124573 0.903137
0.099609 0.287476 0.900391
0.124573 0.289551 0.903137
0.281006 0.302246 0.920441
0.445709 0.281006 0.920441
0.593231 0.281006 0.920441
0.711395 0.281006 0.920441
0.810211 0.281006 0.920441
0.899200 0.281006 0.920441
0.099609 0.473419 0.900391
0.124573 0.475464 0.903137
0.281067 0.488220 0.920471
0.490082 0.505127 0.943573
0.622498 0.490082 0.943573
0.740753 0.490082 0.943573
0.839508 0.490082 0.943573
0.928528 0.490082 0.943573
0.099609 0.621002 0.900391
0.124573 0.622955 0.903137
0.281067 0.635742 0.920471
0.490112 0.652618 0.943573
0.655914 0.666077 0.961914
0.764008 0.655914 0.961914
0.862701 0.655914 0.961914
0.951752 0.655914 0.961914
0.099609 0.739105 0.900391
0.124573 0.741180 0.903137
0.281067 0.753906 0.920471
0.490112 0.770874 0.943573
0.655945 0.784302 0.961945
0.788818 0.795013 0.976624
0.881348 0.788818 0.976624
0.970398 0.788818 0.976624
0.099609 0.838013 0.900391
0.124573 0.840027 0.903137
0.281067 0.852722 0.920471
0.490112 0.869629 0.943573
0.655945 0.883057 0.961945
0.788849 0.893829 0.976624
0.899902 0.902863 0.988922
0.985962 0.899902 0.988922
0.099609 0.900391 0.873810
0.124573 0.903137 0.877289
0.281067 0.920471 0.899231
0.490112 0.943573 0.928528
0.655945 0.961945 0.951782
0.788849 0.976624 0.970398
0.899902 0.988922 0.985962
1.000000 1.000000 1.000000 